X: 16689
T: Happy Bloom Of Youth, The
R: reel
M: 4/4
K: Gmajor
~e2ed ~B2BA|~G2BG AGED|~G2BG dz~e2|dBAd BG~G2|
aged edBA|~G2BG AGED|~G2BG dz~e2|dBAd BG~G2||
faag fedB|eBfB ~g2gf|eB~B2 gfed|BAGA BA~A2|
fzag fedB|eBfB ~g2ga|~b2af gfed|(3efg fa ~g2gf||

